X: 10
T: Hardiman The Fiddler
Z: Shawn Cassady
S: https://thesession.org/tunes/48#setting52362
R: slip jig
M: 9/8
L: 1/8
K: Dmix
|:{AB}"D"A2G FDE F2G|"D"ABA AGA "C"cAG|{AB}"D"A2G FDE "(Bm)"F2G|"D"Add ded "C"cAG:|
"D"Add d2e ~"Bm"f3|"D"Add ded "C"cAG|"D"Add d2e "(Bm)"f2g|"Am"agf ged "C"cAG|
"D"Add d2e ~"Bm"f3|"D"Add ded "C"cAG|"D"dcA d2e "(Bm)"f2g|"Am"agf ged "C"cAG||

